src/assets/img/Card.svg

<svg width="354" height="156" viewBox="0 0 354 156" fill="none" xmlns="http://www.w3.org/2000/svg">
<path fill-rule="evenodd" clip-rule="evenodd" d="M260.296 67.6652L272.565 38.0326C273.98 34.614 278.102 32.8587 281.771 34.1119C283.212 34.6039 284.433 35.5188 285.25 36.7187L302.579 62.1614C303.995 64.2398 306.461 65.4977 309.135 65.5053L339.707 65.5921C343.858 65.6039 347.155 68.7291 347.073 72.5723C347.039 74.1552 346.423 75.6891 345.328 76.9209L323.775 101.15C322.905 102.128 322.571 103.419 322.872 104.639L329.984 133.457C331.002 137.583 328.201 141.748 323.727 142.76C322.032 143.143 320.258 143.027 318.656 142.426L292.062 132.458C290.138 131.737 287.938 131.947 286.181 133.019L261.367 148.165C257.874 150.296 253.224 149.432 250.98 146.234C250.14 145.037 249.726 143.623 249.794 142.185L250.441 128.543C250.758 121.871 254.559 115.704 260.632 112.012L288.199 95.2521C288.935 94.8045 289.15 93.8953 288.679 93.2212C288.314 92.699 287.627 92.4552 286.969 92.6148L251.964 101.11C246.613 102.409 240.956 101.591 236.357 98.8534L223.576 91.246C219.929 89.0751 218.922 84.5478 221.329 81.1341C222.448 79.5465 224.177 78.4083 226.157 77.9553L256.092 71.1064C258.012 70.6671 259.587 69.3778 260.296 67.6652Z" fill="white" fill-opacity="0.05"/>
<g filter="url(#filter0_f_2187_3632)">
<path fill-rule="evenodd" clip-rule="evenodd" d="M138.471 48.5707L145.431 23.1083C146.234 20.1708 149.409 18.3209 152.522 18.9763C153.744 19.2336 154.831 19.8588 155.618 20.7576L172.314 39.8159C173.678 41.3728 175.813 42.1531 177.989 41.8903L202.874 38.8849C206.252 38.4769 209.254 40.7002 209.579 43.8508C209.713 45.1484 209.369 46.4644 208.603 47.5819L193.538 69.5602C192.929 70.4477 192.789 71.5365 193.159 72.5044L201.886 95.3505C203.135 98.6211 201.28 102.308 197.743 103.586C196.403 104.07 194.948 104.153 193.583 103.823L170.928 98.3497C169.289 97.9537 167.52 98.3466 166.2 99.4L147.554 114.28C144.93 116.374 141.058 116.135 138.905 113.746C138.1 112.853 137.619 111.738 137.528 110.556L136.663 99.3369C136.239 93.8497 138.704 88.425 143.268 84.7955L163.989 68.3182C164.542 67.8782 164.624 67.1132 164.172 66.6094C163.822 66.2192 163.238 66.089 162.719 66.2857L135.103 76.7539C130.881 78.3542 126.196 78.2547 122.174 76.4793L110.998 71.5456C107.809 70.1376 106.529 66.5373 108.139 63.5041C108.887 62.0935 110.178 60.9889 111.743 60.4193L135.401 51.8073C136.918 51.255 138.069 50.0423 138.471 48.5707Z" fill="white" fill-opacity="0.05"/>
</g>
<g filter="url(#filter1_f_2187_3632)">
<path fill-rule="evenodd" clip-rule="evenodd" d="M38.8166 88.0599L40.4308 73.0949C40.617 71.3685 42.2369 70.0397 44.049 70.1269C44.7604 70.1612 45.4288 70.4148 45.9534 70.8496L57.0778 80.0683C57.9866 80.8214 59.2591 81.0675 60.4606 80.7226L74.1983 76.7787C76.0633 76.2433 77.9546 77.2233 78.4227 78.9676C78.6155 79.686 78.5407 80.4581 78.2106 81.1566L71.7181 94.8935C71.4559 95.4481 71.4756 96.0738 71.7713 96.5853L78.7518 108.658C79.7511 110.386 79.0407 112.63 77.1651 113.669C76.4543 114.063 75.6425 114.241 74.8443 114.179L61.5943 113.148C60.6357 113.073 59.6754 113.454 59.0276 114.167L49.8766 124.232C48.5887 125.648 46.3872 125.864 44.9594 124.714C44.4251 124.283 44.0533 123.7 43.895 123.042L42.3927 116.804C41.6579 113.753 42.5543 110.476 44.7955 108.02L54.9701 96.8682C55.2418 96.5705 55.2188 96.1323 54.9187 95.8896C54.6862 95.7016 54.3455 95.6812 54.0713 95.8389L39.471 104.232C37.2391 105.514 34.592 105.883 32.1673 105.247L25.429 103.481C23.5061 102.977 22.4594 101.066 23.0912 99.2122C23.385 98.3503 24.0116 97.6116 24.8411 97.1493L37.3812 90.1599C38.1855 89.7116 38.7233 88.9248 38.8166 88.0599Z" fill="white" fill-opacity="0.05"/>
</g>
<defs>
<filter id="filter0_f_2187_3632" x="103.443" y="14.8444" width="110.164" height="104.862" filterUnits="userSpaceOnUse" color-interpolation-filters="sRGB">
<feFlood flood-opacity="0" result="BackgroundImageFix"/>
<feBlend mode="normal" in="SourceGraphic" in2="BackgroundImageFix" result="shape"/>
<feGaussianBlur stdDeviation="2" result="effect1_foregroundBlur_2187_3632"/>
</filter>
<filter id="filter1_f_2187_3632" x="12.907" y="60.1229" width="76.2976" height="75.3301" filterUnits="userSpaceOnUse" color-interpolation-filters="sRGB">
<feFlood flood-opacity="0" result="BackgroundImageFix"/>
<feBlend mode="normal" in="SourceGraphic" in2="BackgroundImageFix" result="shape"/>
<feGaussianBlur stdDeviation="5" result="effect1_foregroundBlur_2187_3632"/>
</filter>
</defs>
</svg>

<svg xmlns="http://www.w3.org/2000/svg" width="354" height="156" fill="none"><path fill="#fff" fill-opacity=".05" fill-rule="evenodd" d="m260.296 67.665 12.269-29.632c1.415-3.419 5.537-5.174 9.206-3.921 1.441.492 2.662 1.407 3.479 2.607l17.329 25.442c1.416 2.079 3.882 3.337 6.556 3.344l30.572.087c4.151.012 7.448 3.137 7.366 6.98-.034 1.583-.65 3.117-1.745 4.349l-21.553 24.229c-.87.978-1.204 2.269-.903 3.489l7.112 28.818c1.018 4.126-1.783 8.291-6.257 9.303a8.899 8.899 0 0 1-5.071-.334l-26.594-9.968a6.798 6.798 0 0 0-5.881.561l-24.814 15.146c-3.493 2.131-8.143 1.267-10.387-1.931a6.494 6.494 0 0 1-1.186-4.049l.647-13.642c.317-6.672 4.118-12.839 10.191-16.531l27.567-16.76c.736-.447.951-1.357.48-2.03-.365-.523-1.052-.767-1.71-.607l-35.005 8.495c-5.351 1.299-11.008.481-15.607-2.257l-12.781-7.607c-3.647-2.17-4.654-6.698-2.247-10.112 1.119-1.588 2.848-2.726 4.828-3.179l29.935-6.849c1.92-.439 3.495-1.728 4.204-3.44Z" clip-rule="evenodd"/><g filter="url(#a)"><path fill="#fff" fill-opacity=".05" fill-rule="evenodd" d="m138.471 48.57 6.96-25.462c.803-2.937 3.978-4.787 7.091-4.132 1.222.258 2.309.883 3.096 1.782l16.696 19.058c1.364 1.557 3.499 2.337 5.675 2.074l24.885-3.005c3.378-.408 6.38 1.815 6.705 4.966.134 1.297-.21 2.613-.976 3.73l-15.065 21.98c-.609.887-.749 1.975-.379 2.943l8.727 22.846c1.249 3.271-.606 6.958-4.143 8.236a7.261 7.261 0 0 1-4.16.237l-22.655-5.473a5.547 5.547 0 0 0-4.728 1.05l-18.646 14.88c-2.624 2.094-6.496 1.855-8.649-.534a5.37 5.37 0 0 1-1.377-3.19l-.865-11.22c-.424-5.486 2.041-10.911 6.605-14.54l20.721-16.478c.553-.44.635-1.205.183-1.709-.35-.39-.934-.52-1.453-.323l-27.616 10.468c-4.222 1.6-8.907 1.5-12.929-.275l-11.176-4.933c-3.189-1.408-4.469-5.009-2.859-8.042.748-1.41 2.039-2.515 3.604-3.085l23.658-8.612c1.517-.552 2.668-1.765 3.07-3.236Z" clip-rule="evenodd"/></g><g filter="url(#b)"><path fill="#fff" fill-opacity=".05" fill-rule="evenodd" d="m38.817 88.06 1.614-14.965c.186-1.727 1.806-3.055 3.618-2.968a3.22 3.22 0 0 1 1.904.723l11.125 9.218c.909.753 2.181 1 3.383.655l13.737-3.944c1.865-.536 3.757.444 4.225 2.189a3.19 3.19 0 0 1-.212 2.189l-6.493 13.737a1.813 1.813 0 0 0 .053 1.691l6.98 12.073c1 1.728.29 3.972-1.586 5.011a4.142 4.142 0 0 1-2.32.51l-13.25-1.031a3.16 3.16 0 0 0-2.567 1.019l-9.151 10.065c-1.288 1.416-3.49 1.632-4.918.482a3.065 3.065 0 0 1-1.064-1.672l-1.502-6.238c-.735-3.051.161-6.328 2.402-8.784L54.97 96.868c.272-.297.249-.736-.051-.978a.756.756 0 0 0-.848-.051l-14.6 8.393c-2.232 1.282-4.879 1.651-7.304 1.015l-6.738-1.766c-1.923-.504-2.97-2.415-2.338-4.269.294-.862.92-1.6 1.75-2.063l12.54-6.99c.804-.447 1.342-1.234 1.436-2.1Z" clip-rule="evenodd"/></g><defs><filter id="a" width="110.164" height="104.862" x="103.443" y="14.844" color-interpolation-filters="sRGB" filterUnits="userSpaceOnUse"><feFlood flood-opacity="0" result="BackgroundImageFix"/><feBlend in="SourceGraphic" in2="BackgroundImageFix" result="shape"/><feGaussianBlur result="effect1_foregroundBlur_2187_3632" stdDeviation="2"/></filter><filter id="b" width="76.298" height="75.33" x="12.907" y="60.123" color-interpolation-filters="sRGB" filterUnits="userSpaceOnUse"><feFlood flood-opacity="0" result="BackgroundImageFix"/><feBlend in="SourceGraphic" in2="BackgroundImageFix" result="shape"/><feGaussianBlur result="effect1_foregroundBlur_2187_3632" stdDeviation="5"/></filter></defs></svg>
